public/jagged-card-tall-glow.svg

<svg width="572" height="779" viewBox="0 0 572 779" fill="none" xmlns="http://www.w3.org/2000/svg">
<g filter="url(#filter0_f_1065_4112)">
<rect x="84.5547" y="102.218" width="394.54" height="556.859" fill="#88FDFF" fill-opacity="0.6"/>
</g>
<path d="M121.446 106.124L87.6293 95.0451C86.8937 94.8041 86.1284 95.3216 86.0781 96.094L85.0043 112.585C84.9965 112.704 85.0068 112.824 85.0348 112.94L89.6896 132.24C89.7176 132.356 89.7279 132.476 89.7201 132.595L86.1845 186.892C86.1798 186.964 86.1817 187.037 86.1903 187.109L92.6806 241.475C92.6894 241.549 92.6912 241.623 92.6862 241.697L86.1774 336.201C86.1774 342.266 86.8883 355.415 89.7318 359.49C92.5335 363.506 90.9645 369.735 89.7844 372.471C89.7492 372.552 89.7232 372.635 89.7061 372.722L86.2113 390.612C86.1888 390.727 86.1835 390.845 86.1957 390.962L89.7318 424.993L86.1822 528.201C86.179 528.294 86.1867 528.387 86.2053 528.478L89.6879 545.592C89.7169 545.735 89.7194 545.882 89.6952 546.025L86.2066 566.741C86.1872 566.856 86.1849 566.973 86.1998 567.089L89.7163 594.451C89.7266 594.531 89.7287 594.612 89.7226 594.692L86.1944 640.928C86.1831 641.075 86.1995 641.223 86.2425 641.364L89.619 652.426C89.6923 652.666 89.84 652.877 90.0408 653.028L100.079 660.564C100.284 660.718 100.534 660.801 100.79 660.801H117.982C118.105 660.801 118.227 660.782 118.344 660.745L131.616 656.491C131.733 656.454 131.855 656.435 131.978 656.435H168.3C168.446 656.435 168.591 656.462 168.728 656.515L179.376 660.646C179.635 660.746 179.921 660.753 180.184 660.664L203.177 652.896C203.371 652.83 203.579 652.816 203.78 652.854L222.319 656.413C222.393 656.427 222.468 656.435 222.543 656.435H282.633C282.78 656.435 282.925 656.462 283.062 656.515L293.727 660.653C293.976 660.749 294.249 660.759 294.504 660.681L308.006 656.534C308.217 656.469 308.442 656.464 308.655 656.521L324.747 660.757C324.859 660.786 324.975 660.799 325.09 660.795L447.929 656.442C448.066 656.437 448.202 656.456 448.332 656.498L461.306 660.656C461.598 660.749 461.914 660.726 462.19 660.591L470.4 656.556C470.562 656.476 470.741 656.435 470.922 656.435H476.343C476.836 656.435 477.278 656.128 477.452 655.666L480.59 647.312C480.673 647.091 480.688 646.85 480.634 646.621L473.662 617.358C473.627 617.209 473.621 617.056 473.644 616.905L480.687 570.753C480.707 570.621 480.706 570.491 480.681 570.36C479.478 563.968 476.793 550.419 475.386 545.808C473.99 541.234 477.05 532.542 478.843 528.555C478.908 528.411 478.943 528.26 478.948 528.102L480.713 472.445C480.716 472.349 480.707 472.252 480.687 472.158L475.409 447.662C475.394 447.591 475.385 447.518 475.383 447.445L473.615 382.289C473.611 382.133 473.638 381.977 473.694 381.831L478.861 368.43C478.913 368.294 478.94 368.149 478.94 368.003V318.116C478.94 318.042 478.934 317.971 478.92 317.899C478.322 314.703 477.163 308.088 477.163 306.361C477.163 304.69 479.33 299.338 480.555 296.539C480.661 296.299 480.684 296.033 480.622 295.779L475.426 274.502C475.4 274.393 475.389 274.28 475.394 274.168L480.714 155.792C480.716 155.734 480.715 155.676 480.709 155.619L477.184 120.973C477.17 120.839 477.18 120.703 477.212 120.572L480.413 107.462C480.577 106.79 480.133 106.121 479.449 106.011L467.294 104.063C467.16 104.042 467.032 103.998 466.913 103.933L462.48 101.512C462.047 101.276 461.513 101.332 461.139 101.654L456.516 105.63C456.114 105.976 455.532 106.012 455.09 105.72L448.537 101.385C448.279 101.215 447.966 101.152 447.663 101.209L432.842 104.01C432.769 104.024 432.696 104.031 432.622 104.031H396.004L380.128 106.198C380.049 106.209 379.969 106.212 379.889 106.206L347.427 104.031C339.528 103.06 322.901 101.12 319.584 101.12C316.288 101.12 294.002 104.473 283.064 106.182C282.922 106.204 282.783 106.199 282.643 106.17L258.759 101.16C258.632 101.133 258.501 101.128 258.371 101.144L217.314 106.188C217.172 106.205 217.027 106.197 216.887 106.162L196.606 101.179C196.447 101.14 196.281 101.134 196.119 101.163L179.942 104.002C179.832 104.021 179.721 104.025 179.611 104.013L152.687 101.137C152.58 101.125 152.473 101.129 152.368 101.146L122.008 106.167C121.82 106.198 121.627 106.183 121.446 106.124Z" fill="#48BBFE" fill-opacity="0.41"/>
<path d="M440.381 102.705L474.035 90.9023C474.767 90.6456 475.539 91.1466 475.601 91.9179L476.909 108.383C476.918 108.502 476.91 108.622 476.883 108.739L472.503 128.136C472.477 128.253 472.468 128.372 472.478 128.491L476.784 182.704C476.79 182.776 476.789 182.849 476.781 182.921L471.064 237.418C471.057 237.492 471.056 237.567 471.062 237.64L478.912 331.99C478.998 338.054 478.475 351.216 475.689 355.352C472.945 359.427 474.602 365.622 475.821 368.332C475.857 368.413 475.885 368.495 475.903 368.582L479.651 386.394C479.675 386.509 479.682 386.626 479.672 386.743L476.62 420.845L481.635 523.961C481.639 524.054 481.633 524.147 481.616 524.239L478.377 541.425C478.35 541.568 478.349 541.715 478.376 541.858L482.158 562.496C482.179 562.611 482.183 562.728 482.17 562.844L479.042 590.277C479.033 590.357 479.032 590.438 479.04 590.518L483.224 636.671C483.237 636.818 483.223 636.966 483.182 637.108L479.963 648.241C479.894 648.483 479.749 648.696 479.55 648.852L469.621 656.602C469.418 656.761 469.169 656.849 468.913 656.855L451.724 657.223C451.601 657.226 451.479 657.209 451.361 657.174L438.03 653.206C437.913 653.171 437.791 653.154 437.668 653.157L401.352 653.936C401.205 653.939 401.06 653.969 400.924 654.025L390.336 658.384C390.079 658.49 389.793 658.503 389.529 658.419L366.429 651.145C366.234 651.084 366.026 651.074 365.826 651.117L347.34 655.073C347.266 655.089 347.192 655.097 347.117 655.099L287.035 656.387C286.889 656.391 286.744 656.421 286.608 656.477L276.003 660.843C275.756 660.944 275.483 660.96 275.227 660.887L261.668 657.031C261.457 656.97 261.232 656.971 261.019 657.031L244.99 661.612C244.878 661.644 244.763 661.659 244.647 661.658L121.765 659.939C121.628 659.937 121.492 659.959 121.363 660.003L108.45 664.439C108.16 664.539 107.843 664.522 107.565 664.393L99.2994 660.535C99.1357 660.458 98.9564 660.421 98.7753 660.425L93.3555 660.541C92.862 660.551 92.4159 660.255 92.2357 659.797L88.9791 651.511C88.8929 651.292 88.8744 651.051 88.9258 650.821L95.4804 621.413C95.5136 621.263 95.5178 621.109 95.4927 620.959L87.7946 574.965C87.7726 574.834 87.7721 574.704 87.795 574.572C88.9073 568.156 91.3989 554.551 92.7406 549.911C94.0716 545.307 90.8887 536.682 89.0388 532.734C88.9721 532.592 88.9349 532.441 88.9276 532.284L86.3722 476.673C86.3678 476.577 86.3752 476.48 86.3942 476.385L91.3232 451.78C91.3376 451.708 91.3453 451.635 91.3463 451.562L92.1883 386.379C92.1903 386.222 92.1612 386.067 92.1028 385.922L86.7463 372.634C86.6919 372.499 86.663 372.355 86.6609 372.209L85.9522 322.329C85.9512 322.256 85.9566 322.185 85.9691 322.112C86.5222 318.904 87.5867 312.265 87.5622 310.538C87.5385 308.868 85.2962 303.563 84.031 300.791C83.9225 300.553 83.8953 300.287 83.9539 300.032L88.8463 278.647C88.8714 278.537 88.8808 278.424 88.8742 278.312L81.8733 160.068C81.8699 160.01 81.8707 159.952 81.8757 159.895L84.908 125.179C84.9198 125.045 84.9085 124.909 84.8746 124.779L81.4875 111.739C81.3138 111.071 81.7487 110.392 82.4302 110.268L94.5565 108.06C94.6894 108.035 94.8174 107.989 94.9348 107.921L99.3335 105.406C99.7627 105.16 100.297 105.205 100.675 105.519L105.355 109.395C105.762 109.732 106.344 109.756 106.782 109.455L113.273 104.98C113.527 104.804 113.84 104.734 114.144 104.785L129.002 107.268C129.075 107.28 129.149 107.285 129.222 107.284L165.835 106.499L181.739 108.325C181.818 108.334 181.898 108.335 181.978 108.328L214.404 105.457C222.288 104.318 238.885 102.021 242.202 101.949C245.498 101.879 267.828 104.754 278.788 106.228C278.93 106.247 279.069 106.239 279.209 106.207L303.018 100.686C303.145 100.656 303.276 100.648 303.405 100.661L344.528 104.824C344.671 104.838 344.816 104.827 344.955 104.789L365.162 99.3721C365.321 99.3294 365.487 99.3203 365.649 99.3452L381.864 101.837C381.973 101.854 382.085 101.855 382.195 101.841L409.074 98.388C409.18 98.3744 409.287 98.3752 409.393 98.3903L439.82 102.76C440.008 102.787 440.201 102.768 440.381 102.705Z" fill="url(#paint0_linear_1065_4112)" fill-opacity="0.41"/>
<path d="M130.575 652.412L97.8356 663.949C97.1032 664.207 96.3293 663.706 96.2682 662.934L94.9958 646.848C94.9864 646.73 94.9949 646.611 95.021 646.494L99.2855 627.507C99.3116 627.391 99.3201 627.271 99.3107 627.153L95.1117 574.072C95.106 574 95.1069 573.928 95.1145 573.856L100.68 520.497C100.688 520.423 100.689 520.349 100.682 520.276L93.0278 427.89C92.9434 421.952 93.453 409.064 96.1662 405.014C98.8388 401.025 97.2253 394.961 96.0379 392.307C96.0018 392.226 95.9748 392.144 95.9567 392.058L92.3046 374.62C92.2807 374.506 92.2738 374.389 92.2841 374.273L95.2551 340.884L90.3619 239.914C90.3574 239.822 90.3637 239.729 90.3808 239.638L93.5341 222.815C93.5608 222.673 93.5612 222.527 93.5352 222.384L89.8499 202.182C89.8291 202.068 89.8252 201.951 89.8383 201.836L92.8826 174.978C92.8917 174.899 92.8926 174.818 92.8854 174.738L88.7859 129.329L88.7859 114.492C88.7859 113.629 89.6797 113.049 90.4644 113.403L94.4095 115.184C94.8096 115.365 95.2783 115.308 95.6268 115.037L102.05 110.036C102.253 109.878 102.5 109.79 102.756 109.785L119.488 109.426C119.611 109.423 119.734 109.44 119.852 109.475L132.829 113.359C132.947 113.395 133.07 113.411 133.193 113.409L168.563 112.65C168.71 112.647 168.855 112.616 168.992 112.56L179.289 108.3C179.547 108.194 179.834 108.181 180.1 108.265L202.584 115.384C202.78 115.445 202.989 115.455 203.19 115.412L221.187 111.543C221.261 111.527 221.336 111.518 221.411 111.517L279.936 110.262C280.083 110.259 280.229 110.228 280.365 110.172L290.679 105.905C290.927 105.802 291.202 105.787 291.459 105.86L304.647 109.632C304.86 109.693 305.086 109.692 305.299 109.631L320.9 105.152C321.013 105.119 321.129 105.104 321.245 105.106L440.952 106.801C441.089 106.803 441.226 106.781 441.356 106.736L453.916 102.402C454.208 102.301 454.527 102.317 454.805 102.448L462.838 106.217C463.003 106.294 463.183 106.332 463.365 106.328L468.614 106.216C469.108 106.205 469.555 106.502 469.734 106.962L472.899 115.052C472.984 115.27 473.003 115.51 472.952 115.739L466.57 144.525C466.537 144.674 466.533 144.827 466.558 144.977L474.06 190.008C474.082 190.139 474.082 190.268 474.06 190.399C472.976 196.683 470.55 210.001 469.243 214.544C467.947 219.05 471.047 227.492 472.849 231.359C472.916 231.501 472.952 231.651 472.96 231.808L475.453 286.256C475.457 286.352 475.45 286.448 475.431 286.542L470.632 310.631C470.617 310.703 470.61 310.775 470.609 310.848L469.793 374.67C469.791 374.826 469.82 374.98 469.878 375.124L475.095 388.13C475.148 388.264 475.177 388.407 475.179 388.553L475.873 437.39C475.874 437.463 475.869 437.533 475.856 437.605C475.318 440.748 474.281 447.247 474.305 448.937C474.329 450.571 476.51 455.76 477.744 458.476C477.851 458.713 477.878 458.977 477.82 459.232L473.057 480.162C473.032 480.272 473.023 480.384 473.03 480.496L479.858 596.276C479.862 596.334 479.861 596.391 479.856 596.448L476.905 630.437C476.893 630.571 476.904 630.706 476.938 630.835L480.231 643.577C480.404 644.245 479.97 644.923 479.289 645.047L467.511 647.202C467.378 647.226 467.249 647.273 467.132 647.341L462.873 649.789C462.442 650.036 461.905 649.991 461.526 649.675L457.004 645.91C456.597 645.571 456.012 645.546 455.573 645.85L449.283 650.209C449.027 650.386 448.713 650.456 448.408 650.405L433.95 647.975C433.877 647.962 433.803 647.957 433.728 647.959L398.062 648.723L382.571 646.934C382.491 646.924 382.41 646.923 382.33 646.931L350.743 649.738C343.062 650.853 326.893 653.101 323.661 653.17C320.451 653.239 298.704 650.422 288.023 648.978C287.88 648.959 287.74 648.966 287.6 648.999L264.416 654.4C264.289 654.429 264.157 654.438 264.027 654.425L223.975 650.345C223.832 650.33 223.686 650.342 223.547 650.38L203.874 655.679C203.714 655.722 203.548 655.731 203.385 655.706L187.599 653.266C187.489 653.249 187.377 653.248 187.267 653.262L161.09 656.639C160.983 656.653 160.875 656.652 160.769 656.637L131.139 652.357C130.95 652.33 130.756 652.349 130.575 652.412Z" fill="url(#paint1_linear_1065_4112)" fill-opacity="0.41"/>
<defs>
<filter id="filter0_f_1065_4112" x="31.4754" y="49.139" width="500.698" height="663.017" filterUnits="userSpaceOnUse" color-interpolation-filters="sRGB">
<feFlood flood-opacity="0" result="BackgroundImageFix"/>
<feBlend mode="normal" in="SourceGraphic" in2="BackgroundImageFix" result="shape"/>
<feGaussianBlur stdDeviation="26.5396" result="effect1_foregroundBlur_1065_4112"/>
</filter>
<linearGradient id="paint0_linear_1065_4112" x1="282.339" y1="90.8345" x2="282.339" y2="664.503" gradientUnits="userSpaceOnUse">
<stop stop-color="#48BBFE"/>
<stop offset="1" stop-color="#2B7098"/>
</linearGradient>
<linearGradient id="paint1_linear_1065_4112" x1="280.098" y1="105.982" x2="291.984" y2="660.264" gradientUnits="userSpaceOnUse">
<stop stop-color="#4857FE"/>
<stop offset="1" stop-color="#982B7B"/>
</linearGradient>
</defs>
</svg>

<svg xmlns="http://www.w3.org/2000/svg" width="572" height="779" fill="none"><g filter="url(#a)"><path fill="#88FDFF" fill-opacity=".6" d="M84.555 102.218h394.54v556.859H84.555z"/></g><path fill="#48BBFE" fill-opacity=".41" d="M121.446 106.124 87.629 95.045a1.185 1.185 0 0 0-1.55 1.049l-1.075 16.491q-.011.18.03.355l4.656 19.3q.042.175.03.355l-3.535 54.297q-.007.108.005.217l6.49 54.366q.014.111.006.222l-6.509 94.504c0 6.065.711 19.214 3.555 23.289 2.802 4.016 1.233 10.245.052 12.981a1.2 1.2 0 0 0-.078.251l-3.495 17.89a1.2 1.2 0 0 0-.015.35l3.536 34.031-3.55 103.208a1.2 1.2 0 0 0 .023.277l3.483 17.114q.043.216.007.433l-3.488 20.716q-.03.173-.007.348l3.516 27.362q.016.12.007.241l-3.529 46.236q-.016.222.049.436l3.376 11.062c.073.24.221.451.422.602l10.038 7.536c.205.154.455.237.711.237h17.192a1.2 1.2 0 0 0 .362-.056l13.272-4.254a1.2 1.2 0 0 1 .362-.056H168.3q.22 0 .428.08l10.648 4.131c.259.1.545.107.808.018l22.993-7.768c.194-.066.402-.08.603-.042l18.539 3.559q.111.022.224.022h60.09q.222 0 .429.08l10.665 4.138c.249.096.522.106.777.028l13.502-4.147c.211-.065.436-.07.649-.013l16.092 4.236q.17.044.343.038l122.839-4.353a1.2 1.2 0 0 1 .403.056l12.974 4.158c.292.093.608.07.884-.065l8.21-4.035a1.2 1.2 0 0 1 .522-.121h5.421c.493 0 .935-.307 1.109-.769l3.138-8.354a1.2 1.2 0 0 0 .044-.691l-6.972-29.263a1.2 1.2 0 0 1-.018-.453l7.043-46.152q.03-.197-.006-.393c-1.203-6.392-3.888-19.941-5.295-24.552-1.396-4.574 1.664-13.266 3.457-17.253q.098-.216.105-.453l1.765-55.657a1.2 1.2 0 0 0-.026-.287l-5.278-24.496a1.2 1.2 0 0 1-.026-.217l-1.768-65.156a1.2 1.2 0 0 1 .079-.458l5.167-13.401q.078-.206.079-.427v-49.887q0-.11-.02-.217c-.598-3.196-1.757-9.811-1.757-11.538 0-1.671 2.167-7.023 3.392-9.822.106-.24.129-.506.067-.76l-5.196-21.277a1.2 1.2 0 0 1-.032-.334l5.32-118.376a1 1 0 0 0-.005-.173l-3.525-34.646a1.2 1.2 0 0 1 .028-.401l3.201-13.11a1.185 1.185 0 0 0-.964-1.451l-12.155-1.948a1.2 1.2 0 0 1-.381-.13l-4.433-2.421a1.185 1.185 0 0 0-1.341.142l-4.623 3.976a1.184 1.184 0 0 1-1.426.09l-6.553-4.335a1.2 1.2 0 0 0-.874-.176l-14.821 2.801a1 1 0 0 1-.22.021h-36.618l-15.876 2.167a1 1 0 0 1-.239.008l-32.462-2.175c-7.899-.971-24.526-2.911-27.843-2.911-3.296 0-25.582 3.353-36.52 5.062a1.2 1.2 0 0 1-.421-.012l-23.884-5.01a1.2 1.2 0 0 0-.388-.016l-41.057 5.044a1.2 1.2 0 0 1-.427-.026l-20.281-4.983a1.2 1.2 0 0 0-.487-.016l-16.177 2.839q-.166.029-.331.011l-26.924-2.876a1.2 1.2 0 0 0-.319.009l-30.36 5.021a1.2 1.2 0 0 1-.562-.043"/><path fill="url(#b)" fill-opacity=".41" d="m440.381 102.705 33.654-11.803a1.176 1.176 0 0 1 1.566 1.016l1.308 16.465q.014.18-.026.356l-4.38 19.397a1.2 1.2 0 0 0-.025.355l4.306 54.213q.009.108-.003.217l-5.717 54.497a1.3 1.3 0 0 0-.002.222l7.85 94.35c.086 6.064-.437 19.226-3.223 23.362-2.744 4.075-1.087 10.27.132 12.98q.055.12.082.25l3.748 17.812q.036.173.021.349l-3.052 34.102 5.015 103.116q.006.14-.019.278l-3.239 17.186q-.041.216-.001.433l3.782 20.638q.031.173.012.348l-3.128 27.433q-.014.12-.002.241l4.184 46.153q.02.222-.042.437l-3.219 11.133a1.2 1.2 0 0 1-.413.611l-9.929 7.75a1.2 1.2 0 0 1-.708.253l-17.189.368a1.2 1.2 0 0 1-.363-.049l-13.331-3.968a1.2 1.2 0 0 0-.362-.049l-36.316.779a1.2 1.2 0 0 0-.428.089l-10.588 4.359a1.18 1.18 0 0 1-.807.035l-23.1-7.274a1.2 1.2 0 0 0-.603-.028l-18.486 3.956a1.2 1.2 0 0 1-.223.026l-60.082 1.288a1.2 1.2 0 0 0-.427.09l-10.605 4.366c-.247.101-.52.117-.776.044l-13.559-3.856a1.2 1.2 0 0 0-.649 0l-16.029 4.581a1.2 1.2 0 0 1-.343.046l-122.882-1.719a1.2 1.2 0 0 0-.402.064l-12.913 4.436c-.29.1-.607.083-.885-.046l-8.266-3.858a1.2 1.2 0 0 0-.524-.11l-5.42.116c-.493.01-.94-.286-1.12-.744l-3.256-8.286a1.2 1.2 0 0 1-.053-.69l6.554-29.408a1.2 1.2 0 0 0 .013-.454l-7.698-45.994a1.2 1.2 0 0 1 0-.393c1.112-6.416 3.604-20.021 4.946-24.661 1.33-4.604-1.852-13.229-3.702-17.177a1.2 1.2 0 0 1-.111-.45l-2.556-55.611a1.2 1.2 0 0 1 .022-.288l4.93-24.605q.02-.108.022-.218l.842-65.183a1.2 1.2 0 0 0-.085-.457l-5.357-13.288a1.2 1.2 0 0 1-.085-.425l-.709-49.88a1 1 0 0 1 .017-.217c.553-3.208 1.618-9.847 1.593-11.574-.023-1.67-2.266-6.975-3.531-9.747a1.2 1.2 0 0 1-.077-.759l4.892-21.385q.038-.166.028-.335l-7-118.244a1 1 0 0 1 .002-.173l3.032-34.716q.017-.203-.033-.4l-3.388-13.04a1.194 1.194 0 0 1 .943-1.471l12.126-2.208q.2-.037.379-.139l4.398-2.515a1.18 1.18 0 0 1 1.342.113l4.68 3.876c.407.337.989.361 1.427.06l6.491-4.475c.254-.176.567-.246.871-.195l14.858 2.483q.11.018.22.016l36.613-.785 15.904 1.826q.119.014.239.003l32.426-2.871c7.884-1.139 24.481-3.436 27.798-3.508 3.296-.07 25.626 2.805 36.586 4.279q.212.028.421-.021l23.809-5.521q.192-.045.387-.025l41.123 4.163c.143.014.288.003.427-.035l20.207-5.417c.159-.043.325-.052.487-.027l16.215 2.492q.165.025.331.004l26.879-3.453q.16-.02.319.002l30.427 4.37c.188.027.381.008.561-.055"/><path fill="url(#c)" fill-opacity=".41" d="m130.575 652.412-32.74 11.537a1.176 1.176 0 0 1-1.567-1.015l-1.272-16.086q-.014-.178.025-.354l4.264-18.987q.04-.176.026-.354l-4.2-53.081a1 1 0 0 1 .004-.216l5.565-53.359q.012-.111.002-.221l-7.654-92.386c-.085-5.938.425-18.826 3.138-22.876 2.673-3.989 1.06-10.053-.128-12.707a1.2 1.2 0 0 1-.081-.249l-3.652-17.438a1.2 1.2 0 0 1-.02-.347l2.97-33.389-4.893-100.97a1.2 1.2 0 0 1 .019-.276l3.153-16.823q.04-.215.001-.431l-3.685-20.202a1.2 1.2 0 0 1-.012-.346l3.045-26.858q.014-.12.002-.24l-4.1-45.409v-14.837c0-.863.895-1.443 1.68-1.089l3.944 1.781c.4.181.87.124 1.218-.147l6.423-5.001c.203-.158.45-.246.706-.251l16.732-.359a1.2 1.2 0 0 1 .364.049l12.977 3.884q.178.054.364.05l35.37-.759q.222-.005.429-.09l10.297-4.26a1.2 1.2 0 0 1 .811-.035l22.484 7.119c.196.061.405.071.606.028l17.997-3.869q.111-.024.224-.026l58.525-1.255c.147-.003.293-.034.429-.09l10.314-4.267c.248-.103.523-.118.78-.045l13.188 3.772c.213.061.439.06.652-.001l15.601-4.479q.17-.05.345-.046l119.707 1.695q.207.003.404-.065l12.56-4.334a1.18 1.18 0 0 1 .889.046l8.033 3.769c.165.077.345.115.527.111l5.249-.112c.494-.011.941.286 1.12.746l3.165 8.09c.085.218.104.458.053.687l-6.382 28.786a1.2 1.2 0 0 0-.012.452l7.502 45.031q.033.195 0 .391c-1.084 6.284-3.51 19.602-4.817 24.145-1.296 4.506 1.804 12.948 3.606 16.815q.1.213.111.449l2.493 54.448q.006.144-.022.286l-4.799 24.089a1 1 0 0 0-.023.217l-.816 63.822c-.002.156.027.31.085.454l5.217 13.006q.08.202.084.423l.694 48.837q.002.108-.017.215c-.538 3.143-1.575 9.642-1.551 11.332.024 1.634 2.205 6.823 3.439 9.539.107.237.134.501.076.756l-4.763 20.93q-.038.166-.027.334l6.828 115.78q.006.087-.002.172l-2.951 33.989q-.018.203.033.398l3.293 12.742a1.193 1.193 0 0 1-.942 1.47l-11.778 2.155a1.2 1.2 0 0 0-.379.139l-4.259 2.448a1.18 1.18 0 0 1-1.347-.114l-4.522-3.765a1.18 1.18 0 0 0-1.431-.06l-6.29 4.359c-.256.177-.57.247-.875.196l-14.458-2.43a1 1 0 0 0-.222-.016l-35.666.764-15.491-1.789a1 1 0 0 0-.241-.003l-31.587 2.807c-7.681 1.115-23.85 3.363-27.082 3.432-3.21.069-24.957-2.748-35.638-4.192a1.2 1.2 0 0 0-.423.021l-23.184 5.401a1.2 1.2 0 0 1-.389.025l-40.052-4.08a1.2 1.2 0 0 0-.428.035l-19.673 5.299c-.16.043-.326.052-.489.027l-15.786-2.44a1.2 1.2 0 0 0-.332-.004l-26.177 3.377a1.2 1.2 0 0 1-.321-.002l-29.63-4.28a1.2 1.2 0 0 0-.564.055"/><defs><linearGradient id="b" x1="282.339" x2="282.339" y1="90.835" y2="664.503" gradientUnits="userSpaceOnUse"><stop stop-color="#48BBFE"/><stop offset="1" stop-color="#2B7098"/></linearGradient><linearGradient id="c" x1="280.098" x2="291.984" y1="105.982" y2="660.264" gradientUnits="userSpaceOnUse"><stop stop-color="#4857FE"/><stop offset="1" stop-color="#982B7B"/></linearGradient><filter id="a" width="500.698" height="663.017" x="31.475" y="49.139" color-interpolation-filters="sRGB" filterUnits="userSpaceOnUse"><feFlood flood-opacity="0" result="BackgroundImageFix"/><feBlend in="SourceGraphic" in2="BackgroundImageFix" result="shape"/><feGaussianBlur result="effect1_foregroundBlur_1065_4112" stdDeviation="26.54"/></filter></defs></svg>
